raw-svg/crown.svg

<svg fill="none" height="24" viewBox="0 0 24 24" width="24" xmlns="http://www.w3.org/2000/svg"><path clip-rule="evenodd" d="m10.1929 9.55647 1.8072-2.89143 1.8071 2.89143c.2613.41799.8221.52683 1.2208.23693l3.8808-2.82241-1.4907 7.82571c-.0224.1179-.1255.2032-.2455.2032h-10.34503c-.12004 0-.22313-.0853-.24559-.2032l-1.49061-7.82571 3.8808 2.82241c.39864.2899.9595.18107 1.22073-.23693zm2.528-4.56835c-.333-.53266-1.1087-.53267-1.4416 0l-1.98881 3.18204-4.64497-3.37817c-.62297-.45306-1.47907.08978-1.33494.84647l1.79789 9.43894c.15722.8254.87886 1.4225 1.7191 1.4225h10.34503c.8402 0 1.5618-.5971 1.7191-1.4225l1.7978-9.43894c.1442-.75669-.7119-1.29954-1.3349-.84647l-4.645 3.37817zm-6.72084 13.01178c-.41421 0-.75.3358-.75.75 0 .4143.33579.75.75.75h12.00004c.4142 0 .75-.3357.75-.75 0-.4142-.3358-.75-.75-.75z" fill="#000" fill-rule="evenodd"/></svg>

<svg width="24" height="24" viewBox="0 0 24 24" fill="none" xmlns="http://www.w3.org/2000/svg">
<path fill-rule="evenodd" clip-rule="evenodd" d="M10.1929 9.55647L12.0001 6.66504L13.8072 9.55647C14.0685 9.97446 14.6293 10.0833 15.028 9.7934L18.9088 6.97099L17.4181 14.7967C17.3957 14.9146 17.2926 14.9999 17.1726 14.9999H6.82757C6.70753 14.9999 6.60444 14.9146 6.58198 14.7967L5.09137 6.97099L8.97217 9.7934C9.37081 10.0833 9.93167 9.97447 10.1929 9.55647ZM12.7209 4.98812C12.3879 4.45546 11.6122 4.45545 11.2793 4.98812L9.29049 8.17016L4.64552 4.79199C4.02255 4.33893 3.16645 4.88177 3.31058 5.63846L5.10847 15.0774C5.26569 15.9028 5.98733 16.4999 6.82757 16.4999H17.1726C18.0128 16.4999 18.7344 15.9028 18.8917 15.0774L20.6895 5.63846C20.8337 4.88177 19.9776 4.33892 19.3546 4.79199L14.7096 8.17016L12.7209 4.98812ZM6.00006 17.9999C5.58585 17.9999 5.25006 18.3357 5.25006 18.7499C5.25006 19.1642 5.58585 19.4999 6.00006 19.4999H18.0001C18.4143 19.4999 18.7501 19.1642 18.7501 18.7499C18.7501 18.3357 18.4143 17.9999 18.0001 17.9999H6.00006Z" fill="black"/>
</svg>
